X: 7550
T: Cock O' The North
R: jig
M: 6/8
K: Amajor
|:A|c>dc cBA|Ace f2 e|c>dc cBA|B3- B2 A|
c>dc cBA|Ace f2 e|c3 BAB|A3- A2:|
|:e|a2 e f2 e|a2 e f2 e|c>dc cBA|
[1 BB/c/d ee/f/g|afe afe|afe fga|c>dc BAB|A3- A2:|
[2 BB/c/d e2 d|c>dc cBA|cde f2 e|c>dc BAB|A3- A2||

